X: 41126
T: Trip To The Quarry
R: jig
M: 6/8
K: Dmajor
|:B|Bcd efg|aba age|~d3 dcd|efg ecA|
Bcd efg|~a3 age|dcd Bed|cAA A2:|
|:B|=c2 e dBB|=cAF GAB|=cBc d^cd|efg ecA|
({B}=c2) e dBB|=cAF GAB|=cee dBB|BAA A2:|

